public/assets/images/icon/icon_14.svg

<svg width="26" height="24" viewBox="0 0 26 24" fill="none" xmlns="http://www.w3.org/2000/svg">
<path fill-rule="evenodd" clip-rule="evenodd" d="M13.1926 1C16.2854 1 18.8073 3.20316 18.841 5.92129L19.1149 5.92241C22.5674 5.92241 25.3749 8.39193 25.3749 11.4279V17.4956C25.3749 20.5305 22.5674 23 19.1149 23H7.25998C3.80874 23 1 20.5305 1 17.4956V11.4279C1 8.39193 3.80874 5.92241 7.25998 5.92241L7.51498 5.92142L7.52291 5.7075C7.60141 4.45959 8.18544 3.31478 9.1876 2.44211C10.2601 1.506 11.7001 1.0385 13.1926 1ZM19.1149 7.57242L18.8412 7.57143L18.8413 9.31164C18.8413 9.76704 18.4213 10.1366 17.9038 10.1366C17.3863 10.1366 16.9663 9.76704 16.9663 9.31164L16.9662 7.57143H9.38873L9.38885 9.31164C9.38885 9.76704 8.96885 10.1366 8.45135 10.1366C7.93385 10.1366 7.51386 9.76704 7.51386 9.31164L7.51373 7.57143L7.25998 7.57242C4.84249 7.57242 2.87499 9.30163 2.87499 11.4279V17.4956C2.87499 19.6208 4.84249 21.35 7.25998 21.35H19.1149C21.5324 21.35 23.4999 19.6208 23.4999 17.4956V11.4279C23.4999 9.30163 21.5324 7.57242 19.1149 7.57242ZM13.1888 2.65001C12.1751 2.68081 11.2251 2.98881 10.5076 3.61361C9.80051 4.23043 9.4042 5.0481 9.38926 5.92132L16.9637 5.92142L16.9599 5.78131C16.8448 4.038 15.1982 2.65001 13.1888 2.65001Z" fill="#009A42" stroke="#009A42" stroke-width="0.5"/>
</svg>

<svg xmlns="http://www.w3.org/2000/svg" width="24.875" height="22.5" viewBox="0 0 24.875 22.5">
  <path id="icon_14" d="M13.193,1c3.093,0,5.615,2.2,5.648,4.921h.274c3.452,0,6.26,2.47,6.26,5.505V17.5c0,3.035-2.808,5.5-6.26,5.5H7.26C3.809,23,1,20.531,1,17.5V11.428C1,8.392,3.809,5.922,7.26,5.922h.255l.008-.214A4.693,4.693,0,0,1,9.188,2.442,6.3,6.3,0,0,1,13.193,1Zm5.922,6.572h-.274v1.74a.945.945,0,0,1-1.875,0V7.571H9.389v1.74a.887.887,0,0,1-.937.825.887.887,0,0,1-.937-.825V7.571H7.26a4.151,4.151,0,0,0-4.385,3.855V17.5A4.151,4.151,0,0,0,7.26,21.35H19.115A4.151,4.151,0,0,0,23.5,17.5V11.428A4.151,4.151,0,0,0,19.115,7.572ZM13.189,2.65a4.227,4.227,0,0,0-2.681.964A3.12,3.12,0,0,0,9.389,5.921h7.574l0-.14A3.611,3.611,0,0,0,13.189,2.65Z" transform="translate(-0.75 -0.75)" fill="#fff" stroke="#fff" stroke-width="0.5" fill-rule="evenodd"/>
</svg>
